contributed-vectors/naver_whale.svg

<?xml version="1.0" encoding="UTF-8" standalone="no"?>
<svg
   xmlns:dc="http://purl.org/dc/elements/1.1/"
   xmlns:cc="http://creativecommons.org/ns#"
   xmlns:rdf="http://www.w3.org/1999/02/22-rdf-syntax-ns#"
   xmlns:svg="http://www.w3.org/2000/svg"
   xmlns="http://www.w3.org/2000/svg"
   xmlns:sodipodi="http://sodipodi.sourceforge.net/DTD/sodipodi-0.dtd"
   xmlns:inkscape="http://www.inkscape.org/namespaces/inkscape"
   viewBox="0 0 192 192"
   version="1.1"
   id="svg16"
   sodipodi:docname="naver_whale.svg"
   inkscape:version="0.92.4 (5da689c313, 2019-01-14)">
  <metadata
     id="metadata20">
    <rdf:RDF>
      <cc:Work
         rdf:about="">
        <dc:format>image/svg+xml</dc:format>
        <dc:type
           rdf:resource="http://purl.org/dc/dcmitype/StillImage" />
        <dc:title></dc:title>
      </cc:Work>
    </rdf:RDF>
  </metadata>
  <sodipodi:namedview
     pagecolor="#ffffff"
     bordercolor="#666666"
     borderopacity="1"
     objecttolerance="10"
     gridtolerance="10"
     guidetolerance="10"
     inkscape:pageopacity="0"
     inkscape:pageshadow="2"
     inkscape:window-width="1920"
     inkscape:window-height="1017"
     id="namedview18"
     showgrid="false"
     inkscape:zoom="2.4583333"
     inkscape:cx="116.05875"
     inkscape:cy="151.4354"
     inkscape:window-x="-8"
     inkscape:window-y="-8"
     inkscape:window-maximized="1"
     inkscape:current-layer="svg16"
     inkscape:snap-global="true">
    <inkscape:grid
       type="xygrid"
       id="grid827"
       spacingx="4"
       spacingy="4" />
  </sodipodi:namedview>
  <defs
     id="defs4">
    <style
       id="style2">.a{fill:none;stroke:#b1b5bd;stroke-linecap:round;stroke-linejoin:round;isolation:isolate;opacity:0.63;}</style>
  </defs>
  <path
     style="fill:#54688c;stroke:none;opacity:1"
     d="M 96 8 A 88 88 0 0 0 23.246094 46.513672 L 23.244141 46.515625 L 18.697266 57.242188 L 27.037109 94.203125 L 68.339844 108 L 139.52539 62.847656 L 167.67578 45.134766 A 88 88 0 0 0 96 8 z "
     id="circle8" />
  <path
     style="fill:#96dfd3;stroke:none;stroke-width:1px;stroke-linecap:butt;stroke-linejoin:miter;stroke-opacity:1"
     d="M 156.20312 44.339844 C 102.46724 44.339844 87.999219 91.795182 55.931641 91.931641 C 39.999438 91.999438 28.69465 78.76301 24.203125 66.771484 C 21.000625 58.221414 22.258577 50.363412 23.246094 46.513672 A 88 88 0 0 0 8 96 A 88 88 0 0 0 96 184 A 88 88 0 0 0 184 96 A 88 88 0 0 0 167.67578 45.134766 C 165.49585 44.836634 161.17913 44.339844 156.20312 44.339844 z "
     id="path829" />
  <path
     style="fill:#96dfd3;stroke:none;stroke-width:1px;stroke-linecap:butt;stroke-linejoin:miter;stroke-opacity:1"
     d="m 8,180 c 0,0 20,-8 32,-24 16,0 36,12 36,12 0,0 -20,16 -44,16 -12,0 -24,-4 -24,-4 z"
     id="path831"
     inkscape:connector-curvature="0"
     sodipodi:nodetypes="cccsc" />
  <path
     style="fill:#ffffff;stroke:none;stroke-width:1px;stroke-linecap:butt;stroke-linejoin:miter;stroke-opacity:1"
     d="M 167.67578 45.134766 C 167.67578 45.134766 140 52 128 72 C 114.48748 94.520869 109.0304 121.19679 96 144 C 84.688963 163.79431 69.417579 173.064 61.416016 176.8125 A 88 88 0 0 0 96 184 A 88 88 0 0 0 184 96 A 88 88 0 0 0 167.67578 45.134766 z "
     id="path851" />
  <rect
     style="opacity:1;vector-effect:none;fill:#54688c;fill-opacity:1;fill-rule:evenodd;stroke:none;paint-order:stroke fill markers"
     id="rect853"
     width="8"
     height="8"
     x="92"
     y="92"
     ry="4" />
  <rect
     style="opacity:1;vector-effect:none;fill:#ffffff;fill-opacity:1;fill-rule:evenodd;stroke:none;stroke-width:0.59322035;paint-order:stroke fill markers"
     id="rect871"
     width="2.3728814"
     height="2.3728814"
     x="46.983051"
     y="51.796612"
     ry="1.1864407" />
  <rect
     style="opacity:1;vector-effect:none;fill:#ffffff;fill-opacity:1;fill-rule:evenodd;stroke:none;paint-order:stroke fill markers"
     id="rect873"
     width="4"
     height="4"
     x="64"
     y="60"
     ry="2" />
  <rect
     style="opacity:1;vector-effect:none;fill:#ffffff;fill-opacity:1;fill-rule:evenodd;stroke:none;stroke-width:0.74576271;paint-order:stroke fill markers"
     id="rect875"
     width="2.9830508"
     height="2.9830508"
     x="96"
     y="48"
     ry="1.4915254" />
  <rect
     style="opacity:1;vector-effect:none;fill:#ffffff;fill-opacity:1;fill-rule:evenodd;stroke:none;paint-order:stroke fill markers"
     id="rect877"
     width="4"
     height="4"
     x="104"
     y="24"
     ry="2" />
  <rect
     style="opacity:1;vector-effect:none;fill:#ffffff;fill-opacity:1;fill-rule:evenodd;stroke:none;stroke-width:0.56779659;paint-order:stroke fill markers"
     id="rect879"
     width="2.2711864"
     height="2.2711864"
     x="128"
     y="29.728813"
     ry="1.1355932" />
  <rect
     style="opacity:1;vector-effect:none;fill:#ffffff;fill-opacity:1;fill-rule:evenodd;stroke:none;stroke-width:0.49152541;paint-order:stroke fill markers"
     id="rect881"
     width="1.9661016"
     height="1.9661016"
     x="70.237289"
     y="48.067799"
     ry="0.98305082" />
</svg>

<svg xmlns="http://www.w3.org/2000/svg" id="svg16" version="1.1" viewBox="0 0 192 192"><defs id="defs4"><style id="style2">.a{fill:none;stroke:#b1b5bd;stroke-linecap:round;stroke-linejoin:round;isolation:isolate;opacity:.63}</style></defs><path id="circle8" d="M96 8a88 88 0 0 0-72.754 38.514l-.002.002-4.547 10.726 8.34 36.961L68.34 108l71.185-45.152 28.15-17.713A88 88 0 0 0 96 8z" style="fill:#54688c;stroke:none;opacity:1"/><path id="path829" d="M156.203 44.34C102.467 44.34 88 91.795 55.932 91.932c-15.933.067-27.237-13.169-31.729-25.16-3.202-8.55-1.944-16.409-.957-20.258A88 88 0 0 0 8 96a88 88 0 0 0 88 88 88 88 0 0 0 88-88 88 88 0 0 0-16.324-50.865c-2.18-.298-6.497-.795-11.473-.795z" style="fill:#96dfd3;stroke:none;stroke-width:1px;stroke-linecap:butt;stroke-linejoin:miter;stroke-opacity:1"/><path id="path831" d="M8 180s20-8 32-24c16 0 36 12 36 12s-20 16-44 16c-12 0-24-4-24-4z" style="fill:#96dfd3;stroke:none;stroke-width:1px;stroke-linecap:butt;stroke-linejoin:miter;stroke-opacity:1"/><path id="path851" d="M167.676 45.135S140 52 128 72c-13.513 22.52-18.97 49.197-32 72-11.311 19.794-26.582 29.064-34.584 32.813A88 88 0 0 0 96 184a88 88 0 0 0 88-88 88 88 0 0 0-16.324-50.865z" style="fill:#fff;stroke:none;stroke-width:1px;stroke-linecap:butt;stroke-linejoin:miter;stroke-opacity:1"/><rect id="rect853" width="8" height="8" x="92" y="92" ry="4" style="opacity:1;vector-effect:none;fill:#54688c;fill-opacity:1;fill-rule:evenodd;stroke:none;paint-order:stroke fill markers"/><rect id="rect871" width="2.373" height="2.373" x="46.983" y="51.797" ry="1.186" style="opacity:1;vector-effect:none;fill:#fff;fill-opacity:1;fill-rule:evenodd;stroke:none;stroke-width:.59322035;paint-order:stroke fill markers"/><rect id="rect873" width="4" height="4" x="64" y="60" ry="2" style="opacity:1;vector-effect:none;fill:#fff;fill-opacity:1;fill-rule:evenodd;stroke:none;paint-order:stroke fill markers"/><rect id="rect875" width="2.983" height="2.983" x="96" y="48" ry="1.492" style="opacity:1;vector-effect:none;fill:#fff;fill-opacity:1;fill-rule:evenodd;stroke:none;stroke-width:.74576271;paint-order:stroke fill markers"/><rect id="rect877" width="4" height="4" x="104" y="24" ry="2" style="opacity:1;vector-effect:none;fill:#fff;fill-opacity:1;fill-rule:evenodd;stroke:none;paint-order:stroke fill markers"/><rect id="rect879" width="2.271" height="2.271" x="128" y="29.729" ry="1.136" style="opacity:1;vector-effect:none;fill:#fff;fill-opacity:1;fill-rule:evenodd;stroke:none;stroke-width:.56779659;paint-order:stroke fill markers"/><rect id="rect881" width="1.966" height="1.966" x="70.237" y="48.068" ry=".983" style="opacity:1;vector-effect:none;fill:#fff;fill-opacity:1;fill-rule:evenodd;stroke:none;stroke-width:.49152541;paint-order:stroke fill markers"/></svg>
